X:1
T:Musical Offering Canon a 2. Per motum contrarium (A = 415 Hz)
T:BWV 1079
T:J. S. Bach
%%score 1 { 2 | 3 }
L:1/8
M:4/4
K:D
V:1 treble nm="Harp"
V:2 alto1 nm="Harp"
V:3 alto 
V:1
 B2 d2 f2 g2 | ^A2 z f ^e2 =e2 | ^d2 =d2- dc^B=B | ^A^G/F/ Be ^d=d c2 | B2 d2 f2 g2 | %5
 ^A2 z f ^e2 =e2 | ^d2 =d2- dc^B=B | ^A^G/F/ Be ^d=d c2 | B2 d2 f2 g2 | ^A2 z f ^e2 =e2 | %10
 ^d2 =d2- dc^B=B | ^A^G/F/ Be ^d=d c2 | B2 d2 f2 g2 | ^A2 z f ^e2 =e2 | ^d2 =d2- dc^B=B | %15
 ^A^G/F/ Be ^d2 z2 |] %16
V:2
 z/ B/A/G/ F/E/D/C/ B,/^A,/B,/C/ DB, | z F B/c/B/A/ ^G/^G,/F,/G,/ ^A,F- | %2
 F/F,/^G,/^A,/ B,/C/D/C/ B,CD=G, | F,/C/B,/^A,/ z/ E/^D/C/ B,2- B,A, | %4
 D/B/A/G/ F/E/D/C/ B,/^A,/B,/C/ DB, | z F B/c/B/A/ ^G/^G,/F,/G,/ ^A,F- | %6
 F/F,/^G,/^A,/ B,/C/D/C/ B,CD=G, | F,/C/B,/^A,/ z/ E/^D/C/ B,2- B,A, | %8
 D/B/A/G/ F/E/D/C/ B,/^A,/B,/C/ DB, | z F B/c/B/A/ ^G/^G,/F,/G,/ ^A,F- | %10
 F/F,/^G,/^A,/ B,/C/D/C/ B,CD=G, | F,/C/B,/^A,/ z/ E/^D/C/ B,2- B,A, | %12
 D/B/A/G/ F/E/D/C/ B,/^A,/B,/C/ DB, | z F B/c/B/A/ ^G/^G,/F,/G,/ ^A,F- | %14
 F/F,/^G,/^A,/ B,/C/D/C/ B,CD=G, | F,/C/B,/^A,/ z/ E/^D/C/ B,2 z2 |] %16
V:3
 z4 z/ F,/^G,/^A,/ B,/C/D/E/ | F/G/F/E/ DF z B, F,/E,/F,/G,/ | A,/A/B/A/ GB,- B,/B/A/G/ F/E/D/E/ | %3
 FEDA B/E/F/G/ z/ C/D/E/ | F2- FG D/F,/^G,/^A,/ B,/C/D/E/ | F/G/F/E/ DF z B, F,/E,/F,/G,/ | %6
 A,/A/B/A/ GB,- B,/B/A/G/ F/E/D/E/ | FEDA B/E/F/G/ z/ C/D/E/ | F2- FG D/F,/^G,/^A,/ B,/C/D/E/ | %9
 F/G/F/E/ DF z B, F,/E,/F,/G,/ | A,/A/B/A/ GB,- B,/B/A/G/ F/E/D/E/ | FEDA B/E/F/G/ z/ C/D/E/ | %12
 F2- FG D/F,/^G,/^A,/ B,/C/D/E/ | F/G/F/E/ DF z B, F,/E,/F,/G,/ | %14
 A,/A/B/A/ GB,- B,/B/A/G/ F/E/D/E/ | FED^A, B,2 z2 |] %16

